COLOR/categories 16/16/preferences-system-notifications.svg

<svg height="16" width="16" xmlns="http://www.w3.org/2000/svg"><g transform="matrix(1.0714286 0 0 1.0714286 -613.3682 -172)"><path d="m580.00004 161c-.55228 0-1 .44772-1 1 .00011.0464.003.0927.01.13867-1.72793.44251-3.01 1.9959-3.01 3.86133.00066.11019.006.22032.0156.33008v3.23633c0 .3597-.0337.6898-.10156.98828-.0679.29862-.18774.55134-.35742.76172-.16288.21718-.38382.38462-.66211.5-.2712.11906-.611.17693-1.01758.17968v.00391h2.13867 3.98438 3.98438 2.13671v-.004c-.40658-.003-.74637-.0606-1.01757-.17968-.27829-.11538-.49923-.28283-.66211-.5-.16968-.21039-.28761-.4631-.35547-.76172-.0679-.29848-.10161-.62859-.10156-.98828v-3.24805-.002c.009-.10522.0146-.21078.0156-.31641 0-1.86608-1.28333-3.41946-3.01172-3.86133.007-.0459.0111-.0921.0118-.13853 0-.55228-.44772-1-1-1zm-3.9082 10.7168-.0156.0195c.003-.003.004-.008.006-.0117.002-.003.008-.004.01-.008zm7.8164 0c.002.003.008.004.01.008.003.003.004.008.006.0117zm-5.9082 1.2832c.0125 1.10862.91475 2 2.02344 2 1.10868 0 2.01094-.89138 2.02344-2z" fill="#1a7fd4"/><path d="m584.06612 172.3138c.003.004.007.006.009.009.003.004.005.01.008.0137z"/><path d="m575.9268 172.31607-.0179.0231c.003-.004.005-.009.008-.0137.003-.004.007-.006.009-.009z"/><path d="m12.330078 5.6816406c-.000377.004553.000389.0091201 0 .0136719v.0039063.4960937c.009643-.1127357.014554-.2247156.015625-.3378906 0-.0599992-.013173-.1164086-.015625-.1757813zm-8.5410155.0058594c-.0022867.0573549-.0136719.1119842-.0136719.1699219.0007072.1180607.0053393.2359156.015625.3535156v-.5c-.0006831-.0078101-.0013104-.015624-.0019531-.0234375zm.0839844 5.794922c-.0021429.004286-.0076228.004598-.0097657.007812-.0021428.003965-.0045982.010458-.0078124.013672zm8.3750001 0 .017578.021484c-.002143-.003964-.004598-.010457-.007813-.013672-.002142-.004285-.007622-.004598-.009765-.007812zm-9.1796876.302734c-.1379928.119924-.2925161.227572-.4785156.304688-.2905715.127564-.6542224.18846-1.0898438.191406v.003906h2.2910156 4.2695313 4.2695311 2.289063v-.003906c-.435622-.003214-.799273-.063821-1.089844-.191406-.185883-.077068-.340579-.184865-.478516-.304688h-.720703-4.2695311-4.2695313zm.8046875.197266-.0175781.021484c.0032142-.003214.0056696-.009707.0078124-.013672.0021429-.003214.0076228-.003526.0097657-.007812zm8.3750001 0c.002143.003214.007623.003527.009765.007812.003215.003215.00567.009708.007813.013672zm-6.3300782 1.375c.0133928 1.187807.9800865 2.142578 2.1679687 2.142578 1.1878715 0 2.1545755-.954771 2.1679685-2.142578h-.070312c-.2354261.943785-1.0827984 1.642578-2.0976565 1.642578-1.0148673 0-1.8622325-.698793-2.0976563-1.642578z" opacity=".2" stroke-width="1.071429" transform="matrix(.93333331 0 0 .93333331 572.47697 160.53333)"/></g><g transform="matrix(1.0714286 0 0 1.0714286 -613.3682 -172)"><path d="m8.0605469.5c-.5917286 0-1.0722657.48053704-1.0722657 1.0722656.0001179.0497143.0042188.099184.0117188.1484375-1.8513536.4741179-3.2246094 2.1380437-3.2246094 4.1367188.0006602.11022.0046371.2202405.0136719.3300781.076599-1.9212179 1.413251-3.5064227 3.2109375-3.9667969-.0075-.0492535-.0116009-.0987232-.0117188-.1484375 0-.5917286.4805371-1.0722656 1.0722657-1.0722656s1.0722656.480537 1.0722656 1.0722656c-.00075.0497465-.0061719.099259-.0136719.1484375 1.7962744.4592249 3.1316744 2.0418176 3.2109374 3.9609375.008969-.1082116.014597-.2156133.015625-.3242187 0-1.9993715-1.374716-3.6632866-3.2265624-4.1367188.0075-.0491785.0129219-.098691.0136719-.1484375 0-.59172856-.480537-1.0722656-1.0722656-1.0722656zm-4.2695313 9.1777344c0 .3853926-.0366678.7387936-.109375 1.0585936-.07275.31995-.2010125.590999-.3828125.816406-.1745143.232693-.4108165.413488-.7089843.53711-.2905715.127564-.6542224.18846-1.0898438.191406v.003906h1.5683594c.0832174-.072321.1648179-.144884.2304687-.232422.1818-.225407.3100625-.496456.3828125-.816406.0727072-.3198.109375-.673201.109375-1.058594zm8.5390624 0v.4999996c-.000053.385383.034672.738794.107422 1.058594.072707.31995.199059.590989.380859.816406.065719.087624.1491.160042.232422.232422h1.56836v-.003906c-.435622-.003214-.799273-.063821-1.089844-.191406-.298168-.123622-.536423-.304427-.710938-.53711-.1818-.225417-.308152-.496456-.380859-.816406-.07275-.3198-.107475-.673211-.107422-1.0585936zm-6.4121092 3.6796876c.0019506.173004.0301773.339103.0703124.5h4.1953128c.040135-.160897.068362-.326996.070312-.5z" fill="#fff" opacity=".3" stroke-width="1.071429" transform="matrix(.93333331 0 0 .93333331 572.47697 160.53333)"/><path d="m584.06612 172.3138c.003.004.007.006.009.009.003.004.005.01.008.0137z"/><path d="m575.9268 172.31607-.0179.0231c.003-.004.005-.009.008-.0137.003-.004.007-.006.009-.009z"/></g><g transform="matrix(1.0714286 0 0 1.0714286 -613.3682 -171.5)"><path d="m584.06612 172.3138c.003.004.007.006.009.009.003.004.005.01.008.0137z"/><path d="m575.9268 172.31607-.0179.0231c.003-.004.005-.009.008-.0137.003-.004.007-.006.009-.009z"/></g></svg>

<?xml version="1.0" encoding="UTF-8" standalone="no"?>
<svg
   xmlns:dc="http://purl.org/dc/elements/1.1/"
   xmlns:cc="http://creativecommons.org/ns#"
   xmlns:rdf="http://www.w3.org/1999/02/22-rdf-syntax-ns#"
   xmlns:svg="http://www.w3.org/2000/svg"
   xmlns="http://www.w3.org/2000/svg"
   xmlns:sodipodi="http://sodipodi.sourceforge.net/DTD/sodipodi-0.dtd"
   xmlns:inkscape="http://www.inkscape.org/namespaces/inkscape"
   height="16"
   width="16"
   version="1.1"
   id="svg10"
   sodipodi:docname="preferences-system-notifications.svg"
   inkscape:version="0.92.4 (5da689c313, 2019-01-14)">
  <metadata
     id="metadata16">
    <rdf:RDF>
      <cc:Work
         rdf:about="">
        <dc:format>image/svg+xml</dc:format>
        <dc:type
           rdf:resource="http://purl.org/dc/dcmitype/StillImage" />
      </cc:Work>
    </rdf:RDF>
  </metadata>
  <defs
     id="defs14" />
  <sodipodi:namedview
     pagecolor="#ffffff"
     bordercolor="#666666"
     borderopacity="1"
     objecttolerance="10"
     gridtolerance="10"
     guidetolerance="10"
     inkscape:pageopacity="0"
     inkscape:pageshadow="2"
     inkscape:window-width="1920"
     inkscape:window-height="1016"
     id="namedview12"
     showgrid="false"
     inkscape:zoom="14.75"
     inkscape:cx="8"
     inkscape:cy="8"
     inkscape:window-x="0"
     inkscape:window-y="27"
     inkscape:window-maximized="1"
     inkscape:current-layer="g8" />
  <g
     transform="matrix(1.0714286,0,0,1.0714286,-613.3682,-172)"
     id="g8">
    <path
       d="m 580.00004,161 c -0.55228,0 -1,0.44772 -1,1 1.1e-4,0.0464 0.003,0.0927 0.01,0.13867 -1.72793,0.44251 -3.01,1.9959 -3.01,3.86133 6.6e-4,0.11019 0.006,0.22032 0.0156,0.33008 v 3.23633 c 0,0.3597 -0.0337,0.6898 -0.10156,0.98828 -0.0679,0.29862 -0.18774,0.55134 -0.35742,0.76172 -0.16288,0.21718 -0.38382,0.38462 -0.66211,0.5 -0.2712,0.11906 -0.611,0.17693 -1.01758,0.17968 V 172 h 2.13867 3.98438 3.98438 2.13671 v -0.004 c -0.40658,-0.003 -0.74637,-0.0606 -1.01757,-0.17968 -0.27829,-0.11538 -0.49923,-0.28283 -0.66211,-0.5 -0.16968,-0.21039 -0.28761,-0.4631 -0.35547,-0.76172 -0.0679,-0.29848 -0.10161,-0.62859 -0.10156,-0.98828 v -3.24805 -0.002 c 0.009,-0.10522 0.0146,-0.21078 0.0156,-0.31641 0,-1.86608 -1.28333,-3.41946 -3.01172,-3.86133 0.007,-0.0459 0.0111,-0.0921 0.0118,-0.13853 0,-0.55228 -0.44772,-1 -1,-1 z m -3.9082,10.7168 -0.0156,0.0195 c 0.003,-0.003 0.004,-0.008 0.006,-0.0117 0.002,-0.003 0.008,-0.004 0.01,-0.008 z m 7.8164,0 c 0.002,0.003 0.008,0.004 0.01,0.008 0.003,0.003 0.004,0.008 0.006,0.0117 z M 578.00004,173 c 0.0125,1.10862 0.91475,2 2.02344,2 1.10868,0 2.01094,-0.89138 2.02344,-2 z"
       id="path2"
       inkscape:connector-curvature="0"
       style="fill:#1a7fd4;fill-opacity:1"
       sodipodi:nodetypes="sccccscccccccccccccccccccssccccccccccscc" />
    <path
       d="m 584.06612,172.3138 c 0.003,0.004 0.007,0.006 0.009,0.009 0.003,0.004 0.005,0.01 0.008,0.0137 z"
       id="path4"
       inkscape:connector-curvature="0" />
    <path
       d="m 575.9268,172.31607 -0.0179,0.0231 c 0.003,-0.004 0.005,-0.009 0.008,-0.0137 0.003,-0.004 0.007,-0.006 0.009,-0.009 z"
       id="path6"
       inkscape:connector-curvature="0" />
    <path
       style="fill:#000000;fill-opacity:1;stroke-width:1.07142866;opacity:0.2"
       d="M 12.330078 5.6816406 C 12.329701 5.6861936 12.330467 5.6907607 12.330078 5.6953125 L 12.330078 5.6992188 L 12.330078 6.1953125 C 12.339721 6.0825768 12.344632 5.9705969 12.345703 5.8574219 C 12.345703 5.7974227 12.33253 5.7410133 12.330078 5.6816406 z M 3.7890625 5.6875 C 3.7867758 5.7448549 3.7753906 5.7994842 3.7753906 5.8574219 C 3.7760978 5.9754826 3.7807299 6.0933375 3.7910156 6.2109375 L 3.7910156 5.7109375 C 3.7903325 5.7031274 3.7897052 5.6953135 3.7890625 5.6875 z M 3.8730469 11.482422 C 3.870904 11.486708 3.8654241 11.48702 3.8632812 11.490234 C 3.8611384 11.494199 3.858683 11.500692 3.8554688 11.503906 L 3.8730469 11.482422 z M 12.248047 11.482422 L 12.265625 11.503906 C 12.263482 11.499942 12.261027 11.493449 12.257812 11.490234 C 12.25567 11.485949 12.25019 11.485636 12.248047 11.482422 z M 3.0683594 11.785156 C 2.9303666 11.90508 2.7758433 12.012728 2.5898438 12.089844 C 2.2992723 12.217408 1.9356214 12.278304 1.5 12.28125 L 1.5 12.285156 L 3.7910156 12.285156 L 8.0605469 12.285156 L 12.330078 12.285156 L 14.619141 12.285156 L 14.619141 12.28125 C 14.183519 12.278036 13.819868 12.217429 13.529297 12.089844 C 13.343414 12.012776 13.188718 11.904979 13.050781 11.785156 L 12.330078 11.785156 L 8.0605469 11.785156 L 3.7910156 11.785156 L 3.0683594 11.785156 z M 3.8730469 11.982422 L 3.8554688 12.003906 C 3.858683 12.000692 3.8611384 11.994199 3.8632812 11.990234 C 3.8654241 11.98702 3.870904 11.986708 3.8730469 11.982422 z M 12.248047 11.982422 C 12.25019 11.985636 12.25567 11.985949 12.257812 11.990234 C 12.261027 11.993449 12.263482 11.999942 12.265625 12.003906 L 12.248047 11.982422 z M 5.9179688 13.357422 C 5.9313616 14.545229 6.8980553 15.5 8.0859375 15.5 C 9.273809 15.5 10.240513 14.545229 10.253906 13.357422 L 10.183594 13.357422 C 9.9481679 14.301207 9.1007956 15 8.0859375 15 C 7.0710702 15 6.223705 14.301207 5.9882812 13.357422 L 5.9179688 13.357422 z "
       transform="matrix(0.93333331,0,0,0.93333331,572.47697,160.53333)"
       id="path882" />
  </g>
  <g
     id="g871"
     transform="matrix(1.0714286,0,0,1.0714286,-613.3682,-172)">
    <path
       style="fill:#ffffff;fill-opacity:1;stroke-width:1.07142866;opacity:0.3"
       d="M 8.0605469 0.5 C 7.4688183 0.5 6.9882812 0.98053704 6.9882812 1.5722656 C 6.9883991 1.6219799 6.9925 1.6714496 7 1.7207031 C 5.1486464 2.194821 3.7753906 3.8587468 3.7753906 5.8574219 C 3.7760508 5.9676419 3.7800277 6.0776624 3.7890625 6.1875 C 3.8656615 4.2662821 5.2023135 2.6810773 7 2.2207031 C 6.9925 2.1714496 6.9883991 2.1219799 6.9882812 2.0722656 C 6.9882812 1.480537 7.4688183 1 8.0605469 1 C 8.6522755 1 9.1328125 1.480537 9.1328125 2.0722656 C 9.1320625 2.1220121 9.1266406 2.1715246 9.1191406 2.2207031 C 10.915415 2.679928 12.250815 4.2625207 12.330078 6.1816406 C 12.339047 6.073429 12.344675 5.9660273 12.345703 5.8574219 C 12.345703 3.8580504 10.970987 2.1941353 9.1191406 1.7207031 C 9.1266406 1.6715246 9.1320625 1.6220121 9.1328125 1.5722656 C 9.1328125 0.98053704 8.6522755 0.5 8.0605469 0.5 z M 3.7910156 9.6777344 C 3.7910156 10.063127 3.7543478 10.416528 3.6816406 10.736328 C 3.6088906 11.056278 3.4806281 11.327327 3.2988281 11.552734 C 3.1243138 11.785427 2.8880116 11.966222 2.5898438 12.089844 C 2.2992723 12.217408 1.9356214 12.278304 1.5 12.28125 L 1.5 12.285156 L 3.0683594 12.285156 C 3.1515768 12.212835 3.2331773 12.140272 3.2988281 12.052734 C 3.4806281 11.827327 3.6088906 11.556278 3.6816406 11.236328 C 3.7543478 10.916528 3.7910156 10.563127 3.7910156 10.177734 L 3.7910156 9.6777344 z M 12.330078 9.6777344 L 12.330078 10.177734 C 12.330025 10.563117 12.36475 10.916528 12.4375 11.236328 C 12.510207 11.556278 12.636559 11.827317 12.818359 12.052734 C 12.884078 12.140358 12.967459 12.212776 13.050781 12.285156 L 14.619141 12.285156 L 14.619141 12.28125 C 14.183519 12.278036 13.819868 12.217429 13.529297 12.089844 C 13.231129 11.966222 12.992874 11.785417 12.818359 11.552734 C 12.636559 11.327317 12.510207 11.056278 12.4375 10.736328 C 12.36475 10.416528 12.330025 10.063117 12.330078 9.6777344 z M 5.9179688 13.357422 C 5.9199194 13.530426 5.9481461 13.696525 5.9882812 13.857422 L 10.183594 13.857422 C 10.223729 13.696525 10.251956 13.530426 10.253906 13.357422 L 5.9179688 13.357422 z "
       transform="matrix(0.93333331,0,0,0.93333331,572.47697,160.53333)"
       id="path865" />
    <path
       inkscape:connector-curvature="0"
       id="path867"
       d="m 584.06612,172.3138 c 0.003,0.004 0.007,0.006 0.009,0.009 0.003,0.004 0.005,0.01 0.008,0.0137 z" />
    <path
       inkscape:connector-curvature="0"
       id="path869"
       d="m 575.9268,172.31607 -0.0179,0.0231 c 0.003,-0.004 0.005,-0.009 0.008,-0.0137 0.003,-0.004 0.007,-0.006 0.009,-0.009 z" />
  </g>
  <g
     transform="matrix(1.0714286,0,0,1.0714286,-613.3682,-171.5)"
     id="g879">
    <path
       d="m 584.06612,172.3138 c 0.003,0.004 0.007,0.006 0.009,0.009 0.003,0.004 0.005,0.01 0.008,0.0137 z"
       id="path875"
       inkscape:connector-curvature="0" />
    <path
       d="m 575.9268,172.31607 -0.0179,0.0231 c 0.003,-0.004 0.005,-0.009 0.008,-0.0137 0.003,-0.004 0.007,-0.006 0.009,-0.009 z"
       id="path877"
       inkscape:connector-curvature="0" />
  </g>
</svg>
